assets/icons/copy.svg

<svg xmlns="http://www.w3.org/2000/svg" viewBox="0 0 24 24">
    <path fill="#9E9E9E"
        d="M21 8.94a1.31 1.31 0 00-.06-.27v-.09a1.07 1.07 0 00-.19-.28l-6-6a1.07 1.07 0 00-.28-.19.32.32 0 00-.09 0 .88.88 0 00-.33-.11H10a3 3 0 00-3 3v1H6a3 3 0 00-3 3v10a3 3 0 003 3h8a3 3 0 003-3v-1h1a3 3 0 003-3V9v-.06zm-6-3.53L17.59 8H16a1 1 0 01-1-1zM15 19a1 1 0 01-1 1H6a1 1 0 01-1-1V9a1 1 0 011-1h1v7a3 3 0 003 3h5zm4-4a1 1 0 01-1 1h-8a1 1 0 01-1-1V5a1 1 0 011-1h3v3a3 3 0 003 3h3z" />
</svg>

<svg xmlns="http://www.w3.org/2000/svg" viewBox="0 0 24 24"><path fill="#9E9E9E" d="M21,8.94a1.31,1.31,0,0,0-.06-.27l0-.09a1.07,1.07,0,0,0-.19-.28h0l-6-6h0a1.07,1.07,0,0,0-.28-.19.32.32,0,0,0-.09,0A.88.88,0,0,0,14.05,2H10A3,3,0,0,0,7,5V6H6A3,3,0,0,0,3,9V19a3,3,0,0,0,3,3h8a3,3,0,0,0,3-3V18h1a3,3,0,0,0,3-3V9S21,9,21,8.94ZM15,5.41,17.59,8H16a1,1,0,0,1-1-1ZM15,19a1,1,0,0,1-1,1H6a1,1,0,0,1-1-1V9A1,1,0,0,1,6,8H7v7a3,3,0,0,0,3,3h5Zm4-4a1,1,0,0,1-1,1H10a1,1,0,0,1-1-1V5a1,1,0,0,1,1-1h3V7a3,3,0,0,0,3,3h3Z"/></svg>
